X:1
T:Clairières dans le ciel
T:Elle est gravement gaie
T:Clairières dans le ciel
T:Lili Boulanger
T:2. Elle est gravement gaie 
T:Francis Jammes
T:A ma petite Miki
T:Creative Commons copyright waiver (CC0 1.0 Universal)
T:Creative Commons copyright waiver (CC0 1.0 Universal)
C:Lili Boulanger
Z:Francis Jammes
Z:Creative Commons copyright waiver (CC0 1.0 Universal)
%%score ( 1 2 )
L:1/8
Q:1/4=114
M:4/4
K:E
V:1 treble nm="Chant\nVoice"
V:2 treble 
V:1
"^Modéré, sans lenteur" z2 | z8 | z4 z2 c2 | f4 (3A2 B2 c2 | B4 E2 z2 | z4 z B2 c | =d4- d A2 c | %7
w: ||Elle|est gra- ve- ment|gai- e.|Par mo-|ments _ son re-|
 B4 B2 B2 | f6 F2- | F2 G2 A2 B2 | a4 =G A2 B | e6- eE | E4- E z z2 ||[M:3/4] z6 | z6 | e2 =g2 e2 | %16
w: gard se le-|vait com-|* me pour sur-|pren- dre ma pen-|sé- * *|e _|||Elle é- tait|
 f4 c2 | =f6 | !tenuto!_B2 =G !tenuto!G _A _A | !tenuto!=c6 | =d =c _B2 c d | =f6- || %22
w: douce a-|\- lors|Com- me quand il est|tard|le ve- lours jaune et|bleu|
[M:4/4] f z _d d _e- e =f =g ||[M:3/4][Q:1/4=95]"^Un peu plus lent" (^g6{e)} | e6- | e2 z4 || %26
w: _ d'une al- lé- e de pen-|\- sé-|es|_|
[M:4/4] z8 | z8 | z8 | z8 |] %30
w: ||||
V:2
 x2 | x8 | x8 | x8 | x8 | x8 | x8 | x8 | x8 | x8 | e4 =d B2 d | x8 | x8 ||[M:3/4] x6 | x6 | x6 | %16
 x6 | x6 | x6 | x6 | x6 | x6 ||[M:4/4] x8 ||[M:3/4] x6 | x6 | x6 ||[M:4/4] x8 | x8 | x8 | x8 |] %30

